storage/app/icons/phosphoricons/regular/hospital.svg

<svg xmlns="http://www.w3.org/2000/svg" fill="currentColor" viewBox="0 0 256 256"><path d="M248 208h-8v-80a16 16 0 0 0-16-16h-56V48a16 16 0 0 0-16-16H56a16 16 0 0 0-16 16v160h-8a8 8 0 0 0 0 16h216a8 8 0 0 0 0-16m-24-80v80h-56v-80ZM56 48h96v160h-16v-48a8 8 0 0 0-8-8H80a8 8 0 0 0-8 8v48H56Zm64 160H88v-40h32ZM72 96a8 8 0 0 1 8-8h16V72a8 8 0 0 1 16 0v16h16a8 8 0 0 1 0 16h-16v16a8 8 0 0 1-16 0v-16H80a8 8 0 0 1-8-8"/></svg>

<svg xmlns="http://www.w3.org/2000/svg" viewBox="0 0 256 256" fill="currentColor"><path d="M248,208h-8V128a16,16,0,0,0-16-16H168V48a16,16,0,0,0-16-16H56A16,16,0,0,0,40,48V208H32a8,8,0,0,0,0,16H248a8,8,0,0,0,0-16Zm-24-80v80H168V128ZM56,48h96V208H136V160a8,8,0,0,0-8-8H80a8,8,0,0,0-8,8v48H56Zm64,160H88V168h32ZM72,96a8,8,0,0,1,8-8H96V72a8,8,0,0,1,16,0V88h16a8,8,0,0,1,0,16H112v16a8,8,0,0,1-16,0V104H80A8,8,0,0,1,72,96Z"/></svg>
